packages/components/src/components/icon/common/ic-name-and-address-verification-default.svg

<svg width="20" height="20" viewBox="0 0 20 20" fill="none" xmlns="http://www.w3.org/2000/svg">
<path fill-rule="evenodd" clip-rule="evenodd" d="M7.0311 6.16473C7.59037 5.69151 8.40966 5.69151 8.96892 6.16474L14.823 11.1182C15.0338 11.2965 15.0601 11.612 14.8817 11.8228C14.7033 12.0336 14.3878 12.0599 14.177 11.8816L13 10.8856V16.4999C13 17.3283 12.3284 17.9999 11.5 17.9999H4.50001C3.67158 17.9999 3.00001 17.3283 3.00001 16.4999V10.8856L1.82298 11.8816C1.61218 12.0599 1.29669 12.0336 1.11832 11.8228C0.939945 11.612 0.966236 11.2965 1.17704 11.1182L7.0311 6.16473ZM4.00001 10.0395V16.4999C4.00001 16.776 4.22387 16.9999 4.50001 16.9999H6.00001V14.4999C6.00001 13.6714 6.67158 12.9999 7.50001 12.9999H8.50001C9.32844 12.9999 10 13.6714 10 14.4999V16.9999H11.5C11.7762 16.9999 12 16.776 12 16.4999V10.0395L8.32298 6.92812C8.13656 6.77038 7.86346 6.77038 7.67704 6.92812L4.00001 10.0395ZM9.00001 16.9999V14.4999C9.00001 14.2237 8.77615 13.9999 8.50001 13.9999H7.50001C7.22387 13.9999 7.00001 14.2237 7.00001 14.4999V16.9999H9.00001Z" fill="var(--fill-color1)"/>
</svg>

<svg xmlns="http://www.w3.org/2000/svg" width="20" height="20" fill="none"><path fill="var(--fill-color1)" fill-rule="evenodd" d="M7.031 6.165a1.5 1.5 0 0 1 1.938 0l5.854 4.953a.5.5 0 1 1-.646.764L13 10.886V16.5a1.5 1.5 0 0 1-1.5 1.5h-7A1.5 1.5 0 0 1 3 16.5v-5.614l-1.177.996a.5.5 0 0 1-.646-.764l5.854-4.953ZM4 10.04v6.46a.5.5 0 0 0 .5.5H6v-2.5A1.5 1.5 0 0 1 7.5 13h1a1.5 1.5 0 0 1 1.5 1.5V17h1.5a.5.5 0 0 0 .5-.5v-6.46L8.323 6.928a.5.5 0 0 0-.646 0L4 10.04ZM9 17v-2.5a.5.5 0 0 0-.5-.5h-1a.5.5 0 0 0-.5.5V17h2Z" clip-rule="evenodd"/></svg>
